X: 15400
T: Glaun
R: jig
M: 6/8
K: Dmajor
|:AGB ~d2e|dFA ~d2e|~d3 Ade|dcA fed|
cGB ~d2e|dFA ~d2e|1 ~d3 Adf|afd d2B:|2 ~d3 ~A3|Ace ecA||
AGB ~g2f|d2A dfe|~d3 Ade|~e2d cAB|
AGB ~g2f|d2A FAd|~e2c Ade|afe dcA|
AGB ~g2f|d2A dfe|~d3 Ade|~e2d cAB|
Abg dBd|a2f dAd|~d3 Acd|~e2d cAB||

